X:100
T:Reel de Gaspe
C:Joseph Allard
M:2/4
L:1/16
Z:abc by Bruce Osborne - bosborne@kos.net
K:D
FE|DFAF DFA,D|FDAF GEEG|FAdA FAdf|edcB AGFE|!
DFAF DFA,D|FDAF GEEG|FAdA FAdf|ecAc d2:|!
|:cd|ecAc EAce|fdAd FAdf|gfeg fedf|edcB ABcd|!
ecAc EAce|fdAd FAdf|gfeg fedf|ecAc d2:|!
